src/assets/icons/weeks,fancy,38.svg

<svg width="48" height="48" viewBox="0 0 48 48" fill="none" xmlns="http://www.w3.org/2000/svg">
<rect opacity="0.2" x="4" y="6" width="40" height="40" rx="4" fill="black"/>
<path d="M14.6932 41.2784C19.267 41.2784 22.5384 38.7628 22.5284 35.2827C22.5384 32.7472 20.9276 30.9375 17.9347 30.5597V30.4006C20.2116 29.9929 21.7827 28.3821 21.7727 26.0952C21.7827 22.8835 18.9688 20.358 14.7528 20.358C10.5767 20.358 7.43466 22.804 7.375 26.3239H11.5014C11.5511 24.7727 12.973 23.7685 14.733 23.7685C16.473 23.7685 17.6364 24.8224 17.6264 26.3537C17.6364 27.9545 16.2741 29.0384 14.3153 29.0384H12.4162V32.2003H14.3153C16.6222 32.2003 18.0639 33.3537 18.054 34.9943C18.0639 36.6151 16.6719 37.7287 14.7031 37.7287C12.804 37.7287 11.3821 36.7344 11.3026 35.2429H6.96733C7.03693 38.8026 10.2188 41.2784 14.6932 41.2784ZM33.2198 41.2784C37.8136 41.2784 41.1147 38.8224 41.1246 35.5213C41.1147 32.9759 39.1559 30.8977 36.7099 30.4901V30.3509C38.8377 29.9134 40.359 28.0739 40.369 25.8366C40.359 22.6847 37.3363 20.358 33.2198 20.358C29.0934 20.358 26.0707 22.6847 26.0806 25.8366C26.0707 28.0639 27.5721 29.9134 29.7397 30.3509V30.4901C27.2539 30.8977 25.315 32.9759 25.3249 35.5213C25.315 38.8224 28.6261 41.2784 33.2198 41.2784ZM33.2198 38.1165C31.1715 38.1165 29.7994 36.9034 29.7994 35.1832C29.7994 33.4233 31.2411 32.1506 33.2198 32.1506C35.1886 32.1506 36.6403 33.4233 36.6403 35.1832C36.6403 36.9134 35.2582 38.1165 33.2198 38.1165ZM33.2198 29.0185C31.4996 29.0185 30.2766 27.8949 30.2766 26.2841C30.2766 24.6932 31.4798 23.5994 33.2198 23.5994C34.9499 23.5994 36.163 24.7031 36.163 26.2841C36.163 27.8949 34.93 29.0185 33.2198 29.0185Z" fill="black"/>
<g opacity="0.4">
<path d="M10 4C10 2.89543 10.8954 2 12 2C13.1046 2 14 2.89543 14 4V8C14 9.10457 13.1046 10 12 10C10.8954 10 10 9.10457 10 8V4Z" fill="black"/>
<path d="M34 4C34 2.89543 34.8954 2 36 2C37.1046 2 38 2.89543 38 4V8C38 9.10457 37.1046 10 36 10C34.8954 10 34 9.10457 34 8V4Z" fill="black"/>
</g>
<path fill-rule="evenodd" clip-rule="evenodd" d="M10 6.00869C7.52043 6.04456 6.11466 6.22849 5.17157 7.17157C4 8.34315 4 10.2288 4 14V16H44V14C44 10.2288 44 8.34315 42.8284 7.17157C41.8853 6.22849 40.4796 6.04456 38 6.00869V8C38 9.10457 37.1046 10 36 10C34.8954 10 34 9.10457 34 8V6H14V8C14 9.10457 13.1046 10 12 10C10.8954 10 10 9.10457 10 8V6.00869Z" fill="black"/>
</svg>

<svg xmlns="http://www.w3.org/2000/svg" width="48" height="48" fill="none" viewBox="0 0 48 48">
  <rect width="40" height="40" x="4" y="6" fill="#000" opacity=".2" rx="4"/>
  <path fill="#000" d="M14.693 41.278c4.574 0 7.845-2.515 7.835-5.995.01-2.536-1.6-4.346-4.593-4.723v-.16c2.277-.407 3.848-2.018 3.838-4.305.01-3.211-2.804-5.737-7.02-5.737-4.176 0-7.318 2.446-7.378 5.966h4.126c.05-1.551 1.472-2.556 3.232-2.556 1.74 0 2.903 1.054 2.893 2.586.01 1.6-1.352 2.684-3.31 2.684h-1.9V32.2h1.9c2.306 0 3.748 1.154 3.738 2.794.01 1.621-1.382 2.735-3.35 2.735-1.9 0-3.322-.995-3.401-2.486H6.967c.07 3.56 3.252 6.035 7.726 6.035zm18.527 0c4.594 0 7.895-2.456 7.905-5.757-.01-2.545-1.97-4.623-4.415-5.03v-.14c2.128-.438 3.649-2.277 3.659-4.514-.01-3.152-3.033-5.479-7.15-5.479-4.126 0-7.148 2.327-7.138 5.479-.01 2.227 1.491 4.076 3.659 4.514v.14c-2.486.407-4.425 2.485-4.415 5.03-.01 3.301 3.301 5.757 7.895 5.757zm0-3.161c-2.048 0-3.42-1.214-3.42-2.934 0-1.76 1.441-3.032 3.42-3.032 1.969 0 3.42 1.272 3.42 3.032 0 1.73-1.382 2.934-3.42 2.934zm0-9.098c-1.72 0-2.943-1.124-2.943-2.735 0-1.59 1.203-2.685 2.943-2.685 1.73 0 2.943 1.104 2.943 2.685 0 1.61-1.233 2.735-2.943 2.735z"/>
  <g opacity=".4">
    <path fill="#000" d="M10 4a2 2 0 114 0v4a2 2 0 11-4 0V4zM34 4a2 2 0 114 0v4a2 2 0 11-4 0V4z"/>
  </g>
  <path fill="#000" fill-rule="evenodd" d="M10 6.009c-2.48.036-3.885.22-4.828 1.163C4 8.343 4 10.229 4 14v2h40v-2c0-3.771 0-5.657-1.172-6.828-.943-.944-2.348-1.127-4.828-1.163V8a2 2 0 11-4 0V6H14v2a2 2 0 11-4 0V6.009z" clip-rule="evenodd"/>
</svg>
